X: 5
T: Hand Me Down The Tackle
R: reel
M: 4/4
L: 1/8
K: Dmaj
dDD2 FDFA|dfaf gfec|dDD2 FDFA|GAEF GABc|
dDD2 FDFA|dfaf gfeg|fdec dBAF|(3GAG EF GABc:|
d2fd edfd|Adfd BDFA|(3ded fd Adfd|(3Bcd AF EDB,[DA]|
d2fd Adfd|dfaf g2fg|(3agf (3gfe fdAF|GFEF GABc|
(3ded fd Adfd|Adfd BAFA|(3ded fd Adfd|(3Bcd AF EDB,D|
a2{b}ag abaf|g2{a}gf gbag|(3fgf eg fdAF|GAEF GABc|]


Tune 800	Setting 800

